X:1
T:Canterbury (Henchman), CM
T:Canterbury (Henchman), CM
T:Psalms, Hymns, and Spiritual Songs, 1742
T:Public Domain Courtesy of the Cyber Hymnal™
C:Psalms, Hymns, and Spiritual Songs, 1742
Z:Public Domain
Z:Courtesy of the Cyber Hymnal™
%%score 1 ( 2 3 )
L:1/8
Q:1/4=112
M:none
K:G
V:1 treble 
V:2 bass 
V:3 bass 
V:1
 [B,G]4 | [DB]2 [DA]2 [DB]2 [EG]2 [DA]2 [DB]2 | [Ec]4 [Ec]4 | [DB]2 [DA]2 [B,G]2 [DB]2 | %4
 [DA]4 [DA]4 | [Ec]2 [DB]2 [DA]2 [B,G]2 [EA]2 [DA]2 | [DB]4 [DB]4 | [DA]2 [DB]2 [Ec]2 [DA]2 | %8
 [B,G]4 |] %9
V:2
 G,4 | G,2 [D,F,]2 G,2 [E,B,]2 [F,A,]2 G,2 | [C,G,]4 [E,G,]4 | G,2 [D,F,]2 [E,G,]2 G,2 | %4
 [D,F,]4 [D,F,]4 | (E,F,) G,2 [D,F,]2 [E,G,]2 [C,G,]2 [D,F,]2 | G,4 [G,,G,]4 | %7
 [D,F,]2 G,2 [C,G,]2 [D,F,]2 | [G,,G,]4 |] %9
V:3
 G,4 | G,2 G,2 x2 G,2 x4 | x8 | G,2 x2 (B,,C,) x2 | x8 | A,,2 (B,,C,) x8 | G,4 x4 | x2 G,2 x4 | %8
 x4 |] %9

